**kern	**kern	**dynam
*part1	*part1	*part1
*staff2	*staff1	*
*I"Piano	*	*
*clefF4	*clefG2	*
*k[b-]	*k[b-]	*
=1	=1	=1
4A'	4e' 4a 4cc#X	.
!	!LO:TX:a:i:t=dim.	!
4AAA'	4E'< 4A< 4c#X<	p
4DDn'	4Fn'< 4A< 4Bn< 4dn<	.
=	=	=
4AA'	4E'< 4A< 4c#X< 4e<	.
4AA'	4e' 4a 4cc#X 4ee	mf
4D'	4fn' 4a 4bn 4dd	.
=	=	=
4A'	4e' 4a 4cc#X	.
*	*clefF4	*
4AAA'	4E' 4A 4c#X	.
4DD'	4F' 4A 4Bn	.
=	=	=
4r	4r	.
4AAA'	4E' 4A	.
4DD'	4F' 4A 4Bn	.
=	=	=
2AA	4r	[
!	!LO:TX:b:i:t=  poco rit.	!
.	2C#X 2A 2c#X	p
4r	.	.
=	=	=
2GGn 2AA	4r	.
.	2C#X 2A 2c#X	.
4r	.	.
=	=	=
2FFn 2AA	4r	.
.	2C#X 2A 2c#X	.
4r	.	.
=	=	=
2EE 2AA	4r	.
.	2C#X 2A 2c#X	.
4r	.	.
=||	=||	=||
*-	*-	*-
!!!system-decoration: {(s1,s2)}
!!!RDF**kern: < = below
